T: Tom Keane's
M: 4/4
L: 1/8
K: Gmaj
|: FDDE FGAG | FDDB, C2 CD | FDDE FGAG | FDEF D4 :||: Addc AGFG | FGAB c3 B | Addc ABAG | FDEF D4 :|A3 B A2 GE | A2 GA BddB | A2 AB AGEF | G2 GA Bd d2 etc
